src/assets/filled/Ram2.svg

<?xml version="1.0" encoding="UTF-8"?>
<svg width="24" height="24" viewBox="0 0 24 24" xmlns="http://www.w3.org/2000/svg">
 <path d="m16.01 20.97c0.0056 0.5561-0.4437 1.01-0.9999 1.01h-6.0166c-0.54968 0-0.9963-0.4436-0.99998-0.9933l-0.01329-1.9867c0-1.1 0.89-2 2-2h4.01c1.1 0 1.99 0.89 2 1.99l0.0198 1.98z"/>
 <path d="m18.5 10v2.17c0 0.53 0.21 1.04 0.59 1.42l0.82 0.82c0.38 0.38 0.59 0.89 0.59 1.42v1.17c0 2.3011-0.9089 3.9936-2.8943 4.6661-0.3012 0.1021-0.5968-0.1358-0.5979-0.4539l-0.0078-2.2322c-0.02-1.64-1.37-2.98-3-2.98h-4.01c-1.66 0-3 1.35-3 3v2.2241c0 0.3175-0.29371 0.5563-0.5951 0.4565-2.0089-0.6647-2.8949-2.3676-2.8949-4.6806v-10c0-2.406 0.95179-4.1662 3.1452-4.7635 0.30056-0.08184 0.58067 0.15971 0.5762 0.47118l-0.03143 2.1923c-0.01 0.47 0.16 0.92 0.48 1.26 0.33 0.34 0.76 0.53 1.27 0.54 0.51417 0 0.97203-0.21275 1.2845-0.55906 0.1122-0.12437 0.3271-0.12939 0.4455-0.01094 0.32 0.34 0.76 0.54 1.27 0.55 0.5143 0 0.9835-0.22605 1.3036-0.58992 0.1052-0.11958 0.3206-0.12911 0.4264-0.01008 0.32 0.34 0.76 0.54 1.27 0.55 0.96 0 1.73-0.75 1.75-1.72l0.0397-2.2234c0.0054-0.30431 0.2809-0.53528 0.575-0.4571 2.204 0.58577 3.1953 2.3576 3.1953 4.7704v1c0 0.55-0.45 1-1 1s-1 0.45-1 1z"/>
 <path d="m9.2281 2.0033c0.28071-0.00181 0.5079 0.22777 0.50315 0.50844l-0.04135 2.4483c-0.01 0.41-0.34 0.74-0.75 0.74h-0.01c-0.42-0.01-0.75-0.35-0.74-0.77v-2.4232c0-0.27488 0.2219-0.49821 0.49677-0.49999l0.54143-0.00349z"/>
 <path d="m12.231 2c0.2794 0 0.5046 0.22906 0.4999 0.50847l-0.0414 2.4415c-0.01 0.4-0.34 0.73-0.75 0.73h-0.01c-0.42-0.01-0.75-0.35-0.74-0.76v-2.42c0-0.27614 0.2239-0.5 0.5-0.5h0.5415z"/>
 <path d="m15.234 2.0066c0.2783 0.00175 0.5016 0.23041 0.4967 0.50867l-0.0412 2.3745c-0.01 0.41-0.34 0.74-0.75 0.74h-0.01c-0.42-0.01-0.75-0.35-0.74-0.76v-2.3666c0-0.27737 0.2258-0.50174 0.5032-0.49999l0.5413 0.00341z"/>
</svg>

<svg width="24" height="24" viewBox="0 0 24 24"  xmlns="http://www.w3.org/2000/svg">
<path d="M16.0098 20.97C16.0154 21.5261 15.5661 21.98 15.0099 21.98H8.99325C8.44357 21.98 7.99695 21.5364 7.99327 20.9867L7.97998 19C7.97998 17.9 8.86998 17 9.97998 17H13.99C15.09 17 15.98 17.89 15.99 18.99L16.0098 20.97Z" />
<path d="M18.5 10.0004V12.1704C18.5 12.7004 18.71 13.2104 19.09 13.5904L19.91 14.4104C20.29 14.7904 20.5 15.3004 20.5 15.8304V17.0004C20.5 19.3015 19.5911 20.994 17.6057 21.6665C17.3045 21.7686 17.0089 21.5307 17.0078 21.2126L17 18.9804C16.98 17.3404 15.63 16.0004 14 16.0004H9.99C8.33 16.0004 6.99 17.3504 6.99 19.0004V21.2245C6.99 21.542 6.69629 21.7808 6.3949 21.681C4.386 21.0163 3.5 19.3134 3.5 17.0004V7.00035C3.5 4.59432 4.45179 2.83414 6.64523 2.23686C6.94579 2.15502 7.2259 2.39657 7.22143 2.70804L7.19 4.90035C7.18 5.37035 7.35 5.82035 7.67 6.16035C8 6.50035 8.43 6.69035 8.94 6.70035C9.45417 6.70035 9.91203 6.4876 10.2245 6.14129C10.3367 6.01692 10.5516 6.0119 10.67 6.13035C10.99 6.47035 11.43 6.67035 11.94 6.68035C12.4543 6.68035 12.9235 6.4543 13.2436 6.09043C13.3488 5.97085 13.5642 5.96132 13.67 6.08035C13.99 6.42035 14.43 6.62035 14.94 6.63035C15.9 6.63035 16.67 5.88035 16.69 4.91035L16.7297 2.687C16.7351 2.38269 17.0106 2.15172 17.3047 2.2299C19.5087 2.81567 20.5 4.58754 20.5 7.00035V8.00035C20.5 8.55035 20.05 9.00035 19.5 9.00035C18.95 9.00035 18.5 9.45035 18.5 10.0004Z" />
<path d="M9.22812 2.0033C9.50883 2.00149 9.73602 2.23107 9.73127 2.51174L9.68992 4.96C9.67992 5.37 9.34992 5.7 8.93992 5.7H8.92992C8.50992 5.69 8.17992 5.35 8.18992 4.93V2.50678C8.18992 2.2319 8.41182 2.00857 8.68669 2.00679L9.22812 2.0033Z" />
<path d="M12.2314 2C12.5108 2 12.736 2.22906 12.7313 2.50847L12.6899 4.95C12.6799 5.35 12.3499 5.68 11.9399 5.68H11.9299C11.5099 5.67 11.1799 5.33 11.1899 4.92L11.1899 2.5C11.1899 2.22386 11.4138 2 11.6899 2H12.2314Z" />
<path d="M15.2344 2.00658C15.5127 2.00833 15.736 2.23699 15.7311 2.51525L15.6899 4.88977C15.6799 5.29977 15.3499 5.62977 14.9399 5.62977H14.9299C14.5099 5.61977 14.1799 5.27977 14.1899 4.86977V2.50316C14.1899 2.22579 14.4157 2.00142 14.6931 2.00317L15.2344 2.00658Z" />
</svg>
